X:1
T:James Gibb editions
T:Ave maris stella - Grieg
T:#
%%score [ 1 2 3 4 ]
L:1/8
Q:1/4=108
M:4/4
K:G
V:1 treble nm="Soprano" snm="S"
V:2 treble nm="Alto" snm="A"
V:3 treble-8 nm="Tenor" snm="T"
V:4 bass nm="Bass" snm="B"
V:1
"^allegretto molto tranquillo""^Ave maris stella, EG150""^Edvard Grieg\n(1843-1907)"!p! B3 A G2 A2 | %1
w: A- ve, ma- ris|
 (B2 d2) d4 | B3!<(! A G2 A2!<)! |!>(! (B2 d2) d4!>)! |"^poco animato"!mf! ^d3 ^c"^cresc." B2 c2 | %5
w: stel- * la,|De- i ma- ter|al\- * ma,|at- que sem- per|
 ^d2 B2 e2 d2 |!f! ^c6 ^d2 | !>!B4 B4 | z8 | z8 |!pp! A3 B B2 !courtesy!=c2 | (c2 B2) B4 | %12
w: Vir- go, fe- lix|cae- li|por- ta.|||Sol- ve vin- cia|re\- * is:|
 G3 A A2 B2 | (!>!B2 A2) A4 |"^cresc." F3 G G2 A2 | B2 e2!f!!<(! e4- | e2!<)! E2"^dim." G2 B2 | %17
w: pro- fer lu- men|cae\- * cis,|ma- la no- stra|pel- le, bo\-|* na cun- cta|
 (A6 B2) |!p! G2 (B2!>(! d2) [dg]2!>)! |"^poco rit." ([eg]4!<(!!>(! [df]4)!<)!!>)! |!pp! [dg]6 z2 | %21
w: po\- *|sce, cun\- * cta|po\- *|sce.|
!p! B3 A G2 A2 | (B2 d2) d4 | B3!<(! A G2 A2!<)! |!>(! (B2 d2) d4!>)! | %25
w: Vi- tam prae- sta|pu- * ram,|i- ter pa- ra|tu\- * tum,|
"^poco animato"!mf! ^d3 ^c"^cresc." B2 c2 | ^d2 B2 e2 d2 |!f! ^c6 ^d2 | !>!B4 B4 | z8 | z8 | %31
w: ut, vi- den- tes|Je- sum, sem- per|col- lae-|te- mur.|||
"^tranquillo dolce"!pp! A3 B B2 !courtesy!=c2 | (c2 B2) B4 | G3 A A2 B2 | (B2 A2) A4 | %35
w: Sit laus De- o|Pa\- * tri,|sum- mo Chri- sto|de\- * cus,|
"^cresc." F3 G G2 A2 | B2 e2!f!!<(! e4-!<)! | e2 E2"^dim." G2 B2 | (A6 B2) | %39
w: Spi- ri- tu- i|San- cto: tri\-|* bus ho- nor|u\- *|
!p! G2 (B2!>(! d2) [dg]2!>)! |[Q:1/4=106]!<(! ([eg]4!<)!"^poco rit."[Q:1/4=103]!>(! [df]4)!>)! | %41
w: nus, ho\- * nor|u\- *|
[Q:1/4=10]!pp![Q:1/4=100] [dg]6[Q:1/4=97] z2 |"^più lento"[Q:1/4=94]!>(!!<(! G8!>)!!<)! | %43
w: nus.|A-|
[Q:1/4=92] !fermata!G8 |] %44
w: men.|
V:2
!p! [DG]3 [DF] [DE]2 [DF]2 | ([DG]2 [GB]2) [GB]4 | [DG]3!<(! [DF] [DE]2 [^CG]2!<)! | %3
w: A- ve, ma- ris|stel\- * la,|De- i ma- ter|
!>(! ([DF]2 [FB]2) [GB]4!>)! |!mf! F3 F"^cresc." F2 F2 | F2 ^D2 B2 B2 |!f! (B4 ^A2) A2 | %7
w: al\- * ma,|at- que sem- per|Vir- go, fe- lix|cae\- * li|
 !>!^G4 F4 | z8 | z8 |!pp! [=DF]3 [DF] [DF]2 [DF]2 | [DF]4 [DF]4 | [CE]3 [CE] [CE]2 [CE]2 | %13
w: por- ta.|||Sol- ve vin- cia|re- is:|pro- fer lu- men|
 [CE]4 [CE]4 |"^cresc." [B,^D]3 D D2 D2 | B3 c!f!!<(! !>!c2 !>!d2!<)! | (!>!c2 C2"^dim." E2) G2 | %17
w: cae- cis,|ma- la no- stra|pel- le, bo- na|cun\- * * cta|
 (G4 F4) |!p! G2 ([DG]2!>(! [GB]2) [Bd]2!>)! |!<(! [Ac]6-!>(! [Bc]2!<)!!>)! |!pp! [GB]6 z2 | %21
w: po\- *|sce, cun\- * cta|po\- *|sce.|
!p! [DG]3 [DF] [DE]2 [DF]2 | ([DG]2 [GB]2) [GB]4 | [DG]3!<(! [DF] [DE]2 [^CG]2!<)! | %24
w: Vi- tam prae- sta|pu\- * ram,|i- ter pa- ra|
!>(! ([DF]2 [FB]2) [GB]4!>)! |!mf! F3 F"^cresc." F2 F2 | F2 ^D2 B2 B2 |!f! (B4 ^A2) A2 | %28
w: tu\- * tum,|ut, vi- den- tes|Je- sum, sem- per|col\- * lae-|
 !>!^G4 F4 | z8 | z8 |!pp! [DF]3 [DF] [DF]2 [DF]2 | [DF]4 [DF]4 | [CE]3 [CE] [CE]2 [CE]2 | %34
w: te- mur.|||Sit laus De- o|Pa- tri,|Sum- mo Chri- sto|
 [CE]4 [CE]4 |"^cresc." [B,^D]3 D D2 D2 | B3 c!f!!<(! !>!c2 !>!d2 | (!>!c2!<)! C2"^dim." E2) G2 | %38
w: de- cus,|Spi- ri- tu- i|San- cto: tri- bus|ho\- * * nor|
 (G4 F4) |!p! G2 ([DG]2!>(! [GB]2) [Bd]2!>)! |!<(! [Ac-]6!<)!!>(! [Bc]2!>)! |!pp! [GB]6 z2 | %42
w: u\- *|nus, ho\- * nor|u\- *|nus.|
!<(! (D4!<)!!>(! C4)!>)! | !fermata!D8 |] %44
w: A\- *|men.|
V:3
!p! B3 A G2 A2 | B4 B4 | B3!<(! A G2 A2!<)! |!>(! c4 B4!>)! |!mf! B3 ^A"^cresc." ^G2 A2 | %5
w: A- ve, ma- ris|stel- la,|De- i ma- ter|al- ma,|at- que sem- per|
 B2 [Bf]2 [Be]2 [B^g]2 |!f! [e^g]4- [ef]2 [ef]2 | !>!e4 ^d4 |!pp!!<(! [B^c]4- [^Ac]2!<)! [A^d]2 | %9
w: Vir- go, fe- lix|cae\- * li|por- ta,|cae\- * li|
!>(! [^GB]4 [FB]4!>)! |!pp! !courtesy!=c3 B B2 A2 | (A2 B2) B4 | B3 A A2 G2 | (G2 A2) A4 | %14
w: por- ta.|Sol- ve vin- cia|re\- * is:|pro- fer lu- men|cae\- * cis,|
"^cresc." A3 B B2 B2 | [eg]3 [e^g]!f!!<(! !>![eg]2 !>![eg]2!<)! | %16
w: ma- la no- stra|pel- le, bo- na|
 (!>![e!courtesy!=g]2 G2"^dim." c2) c2 | [ce]4- [cd]4 |!p! [Bd]6 z2 | z8 | z8 |!p! B3 A G2 A2 | %22
w: cun\- * * cta|po\- *|sce.|||Vi- tam prae- sta|
 B4 B4 | B3!<(! A G2 A2!<)! |!>(! c4 B4!>)! |!mf! B3 ^A"^cresc." ^G2 A2 | B2 [Bf]2 [Be]2 [B^g]2 | %27
w: pu- ram,|i- ter pa- ra|tu- tum,|ut, vi- den- tes|Je- sum, sem- per|
!f! [e^g]4- [ef]2 [ef]2 | !>!e4 ^d4 |!<(! [B^c]4- [^Ac]2!<)! [A^d]2 |!>(! [^GB]4 [FB]4!>)! | %31
w: col\- * lae-|te- mur,|col\- * lae-|te- mur.|
!pp! !courtesy!=c3 B B2 A2 | (A2 B2) B4 | B3 A A2 G2 | (G2 A2) A4 |"^cresc." A3 B B2 B2 | %36
w: Sit laus De- o|Pa\- * tri,|sum- mo Chri- sto|de\- * cus,|Spi- ri- tu- i|
 [eg]3 [e^g]!f!!<(! !>![eg]2 !>![eg]2!<)! | (!>![e!courtesy!=g]2 G2"^dim." c2) c2 | [c-e]4 [cd]4 | %39
w: San- cto: tri- bus|ho\- * * nor|u\- *|
!p! [Bd]6 z2 | z8 | z8 |!pp!!<(! [GB]4-!<)!!>(! [GA]4!>)! | !fermata![GB]8 |] %44
w: nus.|||A\- *|men.|
V:4
!p! [G,,D,]8- | [G,,D,]4 [G,,D,]4 |!<(! E,6!<)! [A,,E,]2 |!>(! D,4 ([G,,D,]2!>)! G,2) | %4
w: A\-|* ve,|ma- ris|stel- la, *|
!mf! F,3 F,"^cresc." F,2 F,2 | B,2 A,2 ^G,2 E,2 |!f! F,6 F,2 | !>![B,,F,]4 [B,,F,]4 | %8
w: at- que sem- per|Vir- go, fe- lix|cae- li|por- ta,|
!pp!!<(! ((F,4 [F,,E,]2))!<)! [F,,E,]2 |!>(! [B,,E,]4 [B,,^D,]4!>)! | %10
w: cae\- * li|por- ta.|
!pp! !courtesy!=D,3 D, D,2 D,2 | D,4 D,4 | C,3 C, C,2 C,2 | C,4 C,4 |"^cresc." B,,3 G, G,2 F,2 | %15
w: Sol- ve vin- cia|re- is:|pro- fer lu- men|cae- cis,|ma- la no- stra|
 [E,D]3 C!f!!<(! !>!C2 !>!B,2!<)! | (!>!A,4"^dim." [A,,B,]2) [A,,E,]2 | [D,G,]4- [D,F,]4 | %18
w: pel- le, bo- na|cun\- * cta|po\- *|
!p! [G,,D,]4- [G,,D,]2 z2 | z8 | z8 |!p! [G,,D,]8- | [G,,D,]4 [G,,D,]4 |!<(! E,6!<)! [A,,E,]2 | %24
w: sce. *|||Vi\-|* tam|prae- sta|
!>(! D,4 ([G,,D,]2!>)! G,2) |!mf! F,3 F,"^cresc." F,2 F,2 | B,2 A,2 ^G,2 E,2 |!f! F,6 F,2 | %28
w: pu- ram, *|ut, vi- den- tes|Je- sum, sem- per|col- lae-|
 !>![B,,F,]4 [B,,F,]4 |!<(! (F,4 [F,,E,]2)!<)! [F,,E,]2 |!>(! [B,,E,]4 [B,,^D,]4!>)! | %31
w: te- mur,|col\- * lae-|te- mur.|
!pp! !courtesy!=D,3 D, D,2 D,2 | D,4 [G,,D,]4 | C,3 C, C,2 C,2 | C,4 [F,,C,]4 | %35
w: Sit laus De- o|Pa- tri,|sum- mo Chri- sto|de- cus,|
"^cresc." B,,3 G, G,2 F,2 | D3 C!f!!<(! !>!C2 !>!B,2!<)! | (!>!A,4"^dim." [A,,B,]2) [A,,E,]2 | %38
w: Spi- ri- tu- i|San- cto: tri- bus|ho\- * nor|
 [D,-G,]4 [D,F,]4 |!p! [G,,D,]6 z2 | z8 | z8 |!pp!!<(! [G,,D,]4-!<)!!>(! [G,,E,]4!>)! | %43
w: u\- *|nus.|||A\- *|
 !fermata![G,,D,]8 |] %44
w: men.|

